X:1
T:The Great Wheel
M:4/4
L:1/4
K:F
 C/2| F F F C3/4 C/4| D E F3/2 F/2| G G A/2 A F/2| D G E2| G B A F3/4 F/4|\
 E G F3/2 F/2| F F F/2F/2 E| D E F z/2||
